X: 4547
T: Boston Boys
R: reel
M: 4/4
K: Cmajor
CE ~E2 GAGE|Dddc ~d2 cA|GcEc GAca|gedg ec ~c2|
~C2 CE GAGE|Dddc dcAc|GcEc GAca|gedg eccB||
~c2(ec) gcec|cdea gede|~c2 ec gcec|GAcg eccB|
~c2ec gcec|cdea gedg|cdcA GAca|gedg ec~c2||

